X:1
T:Title
%%score { 1 | ( 2 3 ) }
L:1/8
Q:1/4=100
M:4/4
K:Bb
V:1 treble nm="Grand Piano"
V:2 bass 
V:3 bass 
V:1
 [DF]2 [DF]>[EG] [DF]2 [B,D][DF] | [FB]2 c2 d4 | [Ac]>[Ac] [Ac][FB] [FA]2 z2 | %3
w: Ira~D.~Sankey * * * * *|||
 [Fd]>[Fd] [Fd][Ec] [DB]2 z2 | [DF]2 [DF]>[EG] [DF]2 [B,D][DF] | [FB]2 [Fc]2 [Fd]4 | %6
w: |||
 [EFc]>[EFc] [EFc][DFB] [CFA]2 [B,=EG]2 | F6 z2 | A2 A>B c2 F2 | [DF]2 [DB]2 [Fd]4 | %10
w: ||||
 [^Fd]2 [FA]>[FA] [DGB]2 [DG=B]2 | [CGc]2 [C=EG]2 [CFA]4 | [B,DB]2 [DB]>[DB] [EB]2 [A,FA][EG] | %13
w: |||
 [B,DF]2 [DB]2 [Fd]4 | [Ec]>[Ec] [Gc][Gc] [FB]2 [CEA]2 | [DB]6 z2 |] %16
w: |||
V:2
 [B,,B,]2 [B,,B,]>[B,,B,] [B,,B,]2 [B,,F,][B,,B,] | [D,B,]2[K:treble] [F,A,F]2 [B,F]4 | %2
 [F,E]>[F,E] [F,E][F,D] [F,C]2 z2 | [B,,B,]>[B,,B,] [B,,B,][B,,F,] [B,,F,]2 z2 | %4
 [B,,B,]2 [B,,B,]>[B,,B,] [B,,B,]2 [B,,F,][B,,B,] | [D,B,]2 [C,A,]2 [B,,B,]4 | %6
 A,,>A,, A,,B,, C,2 C,2 | [F,A,]6 z2 | [F,CE]2 [F,CE]>[F,B,D] [F,A,F]2 [F,A,E]2 | %9
 [B,,B,]2 [B,,F,]2 [B,,B,]4 | [D,A,]2 [D,D]>[D,D] G,2 F,2 | z4 F,4 | %12
 B,,2 [B,,F,]>[B,,F,] [E,G,]2 z B, | B,,2 [B,,F,]2 [B,,B,]4 | %14
 [E,G,]>[E,G,] [E,C][E,E] [F,D]2 [F,,F,]2 | [B,,F,B,]6 z2 |] %16
V:3
 x8 | x2[K:treble] x6 | x8 | x8 | x8 | x8 | x8 | x8 | x8 | x8 | x8 | =E,2 C,2 z _E,D,C, | %12
 z4 z2 E,2 | x8 | x8 | x8 |] %16

